icons/nextron.svg

<svg width="16" height="16" viewBox="0 0 16 16" fill="none" xmlns="http://www.w3.org/2000/svg">
<path fill-rule="evenodd" clip-rule="evenodd" d="M8.37553 3.17333C8.14515 3.41566 7.81637 3.56726 7.45138 3.56726C6.75456 3.56726 6.18967 3.01468 6.18967 2.33304C6.18967 1.6514 6.75456 1.09882 7.45138 1.09882C8.1098 1.09882 8.65042 1.59216 8.70802 2.22157C9.46914 2.57945 9.99789 3.18714 10.369 3.83332C10.824 4.62553 11.0651 5.51403 11.2226 6.16816C11.6478 7.93489 11.2685 10.2285 10.9565 11.3627C10.8833 11.6289 10.6081 11.7854 10.3418 11.7121C10.0756 11.6389 9.9191 11.3637 9.99234 11.0974C10.2884 10.021 10.6166 7.92366 10.2503 6.40218C10.096 5.76102 9.88106 4.99163 9.50185 4.33135C9.21806 3.83724 8.85595 3.42701 8.37553 3.17333ZM2.06024 4.41146C3.09318 3.51914 4.54608 3.43993 5.68726 3.78207C5.95177 3.86138 6.10191 4.14009 6.02261 4.4046C5.94331 4.66911 5.66459 4.81925 5.40008 4.73995C4.476 4.4629 3.41173 4.56542 2.71396 5.1682C2.37286 5.46286 2.03964 6.19287 2.56001 6.96104C2.71489 7.18966 2.6551 7.50055 2.42648 7.65542C2.19785 7.8103 1.88697 7.75051 1.73209 7.52189C0.864571 6.24126 1.4265 4.95893 2.06024 4.41146ZM11.663 3.81699C11.3869 3.81699 11.163 4.04084 11.163 4.31699C11.163 4.59313 11.3869 4.81699 11.663 4.81699C11.8321 4.81699 12.1839 4.85392 12.5317 4.98697C12.8801 5.12028 13.1639 5.32544 13.3075 5.62238C13.7852 6.61084 13.3265 7.99926 12.047 9.32275C11.8551 9.52129 11.8605 9.83783 12.059 10.0298C12.2575 10.2217 12.5741 10.2163 12.766 10.0178C14.1231 8.61402 14.9729 6.77004 14.2078 5.1872C13.9119 4.57504 13.3682 4.23631 12.889 4.05299C12.4092 3.86941 11.9334 3.81699 11.663 3.81699ZM8.74461 5.09207C9.01375 5.03024 9.1818 4.76194 9.11996 4.49281C9.05813 4.22368 8.78983 4.05563 8.5207 4.11746C7.29167 4.39983 5.08042 5.42985 3.58361 7.01369C2.5979 8.05671 2.01979 9.08944 1.76775 10.0996C1.58918 10.8152 1.57829 11.5037 1.68874 12.1559C1.27369 12.358 0.98851 12.7772 0.98851 13.2615C0.98851 13.9431 1.5534 14.4957 2.25022 14.4957C2.94704 14.4957 3.51193 13.9431 3.51193 13.2615C3.51193 12.7335 3.17298 12.2829 2.69631 12.1066C2.58451 11.5431 2.58506 10.9546 2.738 10.3417C2.94031 9.53086 3.41724 8.64564 4.3104 7.70055C5.65546 6.27729 7.68358 5.33584 8.74461 5.09207ZM4.44953 9.20482C4.27459 8.99116 3.95956 8.95977 3.7459 9.13471C3.53225 9.30965 3.50086 9.62468 3.6758 9.83834C4.22028 10.5033 5.66354 12.0468 8.59542 12.8141C10.087 13.2045 11.3739 13.103 12.3642 12.8126C12.6839 12.7189 12.9762 12.6043 13.2363 12.4783C13.4483 12.6362 13.713 12.7299 14 12.7299C14.6968 12.7299 15.2617 12.1773 15.2617 11.4957C15.2617 10.8141 14.6968 10.2615 14 10.2615C13.3032 10.2615 12.7383 10.8141 12.7383 11.4957C12.7383 11.5327 12.74 11.5694 12.7432 11.6056C12.5516 11.6949 12.3312 11.7802 12.0828 11.853C11.2591 12.0946 10.157 12.1891 8.8486 11.8467C6.18048 11.1484 4.90505 9.76115 4.44953 9.20482ZM4.88235 12.0097C5.15074 11.9448 5.42099 12.1097 5.48596 12.3781C5.64615 13.0397 6.27219 13.7947 7.06588 13.8886C7.72037 13.966 8.28501 13.6665 8.66552 13.324C8.87077 13.1393 9.18692 13.156 9.37165 13.3612C9.55638 13.5665 9.53974 13.8826 9.33448 14.0673C8.8261 14.5249 7.98659 15.0044 6.94843 14.8817C5.62355 14.725 4.74195 13.5548 4.51404 12.6133C4.44906 12.345 4.61396 12.0747 4.88235 12.0097ZM7.63266 9.4957C8.18494 9.4957 8.63266 9.04798 8.63266 8.4957C8.63266 7.94341 8.18494 7.4957 7.63266 7.4957C7.08038 7.4957 6.63266 7.94341 6.63266 8.4957C6.63266 9.04798 7.08038 9.4957 7.63266 9.4957Z" fill="#33ACC5"/>
</svg>

<svg xmlns="http://www.w3.org/2000/svg" width="16" height="16" fill="none"><path fill="#33ACC5" fill-rule="evenodd" d="M8.376 3.173c-.23.243-.56.394-.925.394-.696 0-1.261-.552-1.261-1.234 0-.682.565-1.234 1.261-1.234.659 0 1.2.493 1.257 1.123.761.357 1.29.965 1.661 1.611.455.793.696 1.681.854 2.335.425 1.767.045 4.06-.267 5.195a.5.5 0 1 1-.964-.266c.296-1.076.625-3.173.258-4.695-.154-.641-.369-1.41-.748-2.07-.284-.495-.646-.905-1.126-1.159ZM2.06 4.411c1.033-.892 2.486-.971 3.627-.629a.5.5 0 0 1-.287.958c-.924-.277-1.988-.175-2.686.428-.341.295-.674 1.025-.154 1.793a.5.5 0 1 1-.828.56 2.342 2.342 0 0 1 .328-3.11Zm9.603-.594a.5.5 0 0 0 0 1c.17 0 .52.037.869.17.348.133.632.338.775.635.478.989.02 2.377-1.26 3.7a.5.5 0 0 0 .719.696c1.357-1.404 2.207-3.248 1.442-4.83-.296-.613-.84-.952-1.319-1.135a3.644 3.644 0 0 0-1.226-.236ZM8.745 5.092a.5.5 0 1 0-.224-.975C7.29 4.4 5.08 5.43 3.584 7.014 2.598 8.057 2.02 9.089 1.768 10.1a4.98 4.98 0 0 0-.08 2.056c-.414.202-.7.621-.7 1.105 0 .682.565 1.235 1.262 1.235.697 0 1.262-.553 1.262-1.235 0-.527-.339-.978-.816-1.154a3.99 3.99 0 0 1 .042-1.765c.202-.811.68-1.696 1.572-2.641 1.345-1.424 3.374-2.365 4.435-2.609ZM4.45 9.205a.5.5 0 0 0-.774.633c.544.665 1.988 2.209 4.92 2.976 1.491.39 2.778.289 3.768-.001a5.65 5.65 0 0 0 .872-.335c.212.158.477.252.764.252.697 0 1.262-.553 1.262-1.234 0-.682-.565-1.235-1.262-1.235-.697 0-1.262.553-1.262 1.235 0 .037.002.073.005.11a4.68 4.68 0 0 1-.66.247c-.824.242-1.926.336-3.234-.006-2.669-.699-3.944-2.086-4.4-2.642Zm.432 2.805a.5.5 0 0 1 .604.368c.16.662.786 1.417 1.58 1.51.654.078 1.219-.222 1.6-.564a.5.5 0 0 1 .668.743c-.508.458-1.347.937-2.386.815-1.324-.157-2.206-1.327-2.434-2.269a.5.5 0 0 1 .368-.603Zm2.75-2.514a1 1 0 1 0 0-2 1 1 0 0 0 0 2Z" clip-rule="evenodd"/></svg>
